X:1
T:Minnesota Street Rag
T:MINNESOTA STREET RAG.
T:FRED SWANSON
T:Copyright 1903 by Fred Swanson
T:Copyright 1903 by Fred Swanson
T:Copyright 1903 by Fred Swanson
T:Copyright 1903 by Fred Swanson
C:Fred Swanson
Z:Copyright 1903 by Fred Swanson
%%score { ( 1 3 ) | ( 2 4 ) }
L:1/8
Q:1/4=180
M:4/4
K:Ab
V:1 treble nm="Piano" snm="Pno."
V:3 treble 
V:2 bass 
V:4 bass 
V:1
!ff! [Ee]2 [Ac][Ee]- [Ee][=Ac] [Ee]2 | [B=db]2 [Ada]4 [F=Bf]2 | %2
!<(! d !^!g2 [Aa] [=A=a]2 [Bb]2!<)! |!f! [ee']4 !>![EGde]4 |:!mf! z [Ec]z[EA]- [EA]2 FE | %5
 z EFG- GF E2 | z [Ec]z[EA]- [EA]2 FE- | EEFG- GF E2 | z [Ed]z[EG]- [EG]F E2 | %9
 z [Gf]z[Gd]- [Gd]G [Fd]2 |!<(! z (g !^![Bdf]2) z (d !^![DB]2)!<)! | %11
!>(! z (B !^![=DA]2) (([_DA]2 !^![Gde]2))!>)! |!mf! z [Ec]z[EA]- [EA]2 FE | z EFG- GF E2 | %14
 z [Ec]z[EA]- [EA]2 FE- | EEFG- GF E2 |"_cresc." z [EG]z[GB] z [Gc] [Ge]2 | %17
 z [GB]z[Gc] z [Ge] [Gg]2 | B [F=d]2 A [Bg]2 [Af]2 |1 [Ge]4 !>![EGde]4 :|2 %20
 [Ge]4 !>![Ee]2 !>![=D=d]2 |:!mf! [D_d]2 B[Ed]- [Ed]G [Ed]2 | z EFG- GGAB | [Ec]2 Ac- cE c2 | %24
 z EFG ABcd |!<(! [Ee]2 dG- G2 !^![=E=e]2 | !^![Ff]2 dG- G2 !^![Gg]2!<)! | %27
!>(! !^![Aa]2 c[Gg]- [Gg]c [Ff]2!>)! | z2 !>![CAc]2 !>![=B,A=B]2 !>![CAc]2 | %29
 [D_d]2 B[Ed]- [Ed]G [Ed]2 | z EFG- GGAB | [Ec]2 Ac- cE c2 | z EFG- GBcd | %33
 [Ff]2 =e[Ff]- [Ff]c [F_e]2 | [Fd]2 cd- dF d2 | [=DAc]2 Fc- cE BE |1 %36
 [CA]4 !>![EAe]2 !>![=DA=d]2 :|2 [CA]2 z2 !>![Aca]2 z2 || %38
[K:Db][M:4/4]!p!"_TRIO." !>![dfa]2 z2 z2 A2 | e2 fe- e2 x2 | e2 fe- ecBA | !>!F6 [FA]2 | %42
 d2 ed- dedB | c2 =Bc- cBcd | e2 fe- efec | [Fd]2 [Ae]2 [df]2 [eg]2 | !>![dfa]2 z2 z2 A2 | %47
 e2 fe- e2 x2 | e2 fe- ecBA | !>!F6 [FA]2 | B=ABd- dd e2 | f=ega- aa b2 | B2 fe- ec A2 | %53
 [Fd]6 z2 ||!ff! z2"_Basso marcato" !>![Bdfb]2 z2 !>![Bdfb]2 | z2 !>![Bdfb]2 z2 !>![Bdfb]2 | %56
 z2 !>![Begb]2 z2 !>![Begb]2 | z !>![Bdfb]2 [Bdfb] [Bdfb]2 [Bdfb]2 |!pp! ecde- e2 g2 | %59
 dBcd- d2 f2 | c2 G=A- ABAG | F2!<(! !>![F=Acf]2 !>![FBdf]2 !>![FA_ef]2!<)! | %62
!ff! z2 !>![Bdfb]2 z2 !>![Bdfb]2 | z2 !>![Bdfb]2 z2 !>![Bdfb]2 | z2 !>![Begb]2 z2 !>![Begb]2 | %65
 z !>![Bdfb]2 [Bdfb] [Bdfb]2 [Bdfb]2 | [d=e=gd']2 [degd']3!pp! c'ba |"_cresc." fedf- ffed | %68
 edce- eedc |!<(! B4 !^![Acg]4!<)! |!ff!!8va(! !>![ad'f'a']2"^8va ad lib." z2 z2 a2 | %71
 e'2 f'e'- e'2 x2 | e'2 f'e'- e'c'ba | !>!f6 [fa]2 | d'2 e'd'- d'e'd'b | c'2 =bc'- c'bc'd' | %76
 e'2 f'e'- e'f'e'c' | [fd']2!<(! [eae']2 [fd'f']2 [ge'g']2!<)! | !>![ad'f'a']2 z2 z2 a2 | %79
 e'2 f'e'- e'2 x2 | e'2 f'e'- e'c'ba | !>!f6 [fa]2 | b=abd'- d'd' e'2 | f'=e'g'a'- a'a' b'2 | %84
 b2 f'e'- e'c' a2 | [fd']4 !>![d'f'a'd'']2 z2!8va)! |] %86
V:2
 [A,,A,]2 [E,A,C]2 [F,,F,]2 [F,=A,C]2 | [B,,,B,,]2 [F,B,=D]2 [B,DF]2 [A,=B,D]2 | %2
 x !^!G,2 [A,,A,] [=A,,=A,]2 [B,,B,]2 | [E,,E,]4 !>![E,G,D]4 |: A,,2 [E,A,C]2 E,,2 [E,A,C]2 | %5
 A,,2 [E,A,C]2 E,,2 [E,A,C]2 | A,,2 [E,A,C]2 E,,2 [E,A,C]2 | A,,2 [E,A,C]2 E,,2 [E,A,C]2 | %8
 B,,2 [E,G,D]2 E,,2 [E,G,D]2 | B,,2 [E,G,D]2 E,,2 [E,G,D]2 | %10
 !>![E,,E,]2 !>![F,,F,]2 !>![G,,G,]2 !>![F,,F,]2 | !>![G,,G,]2 !>![F,,F,]2 !>![E,,E,]2 !^![E,B,]2 | %12
 A,,2 [E,A,C]2 E,,2 [E,A,C]2 | A,,2 [E,A,C]2 E,,2 [E,A,C]2 | A,,2 [E,A,C]2 E,,2 [E,A,C]2 | %15
 A,,2 [E,A,C]2 E,,2 [E,A,C]2 | B,,2 [G,B,E]2 E,2 [G,B,E]2 | B,,2 [B,E]2 G,2 [B,E]2 | %18
 F,2 [A,B,=D]2 B,,2 [A,B,D]2 |1 !>![E,E]2 !>![_D,_D]2 !>![B,,B,]2 !>![E,,E,]2 :|2 %20
 !>![E,E]2 !>![B,,B,]2 !>![G,,G,]2 !>![A,,A,]2 |: [B,,,B,,]2 [E,G,D]2 E,,2 [E,G,D]2 | %22
 B,,2 [E,G,D]2 E,,2 [E,G,D]2 | A,,2 [E,A,C]2 E,,2 [E,A,C]2 | A,,2 [E,A,C]2 E,,2 [E,A,C]2 | %25
 [B,,,B,,]2 [E,G,D]2 [E,G,D]2 !^![=E,,=E,]2 | !^![F,,F,]2 [E,G,D]2 [E,G,D]2 !^![G,,G,]2 | %27
 !^![A,,A,]2 [E,A,C]2 [E,,E,]2 [E,A,C]2 | z2 !>![E,,E,]2 !>![=D,,=D,]2 !>![E,,E,]2 | %29
 [B,,,B,,]2 [E,G,D]2 E,,2 [E,G,D]2 | B,,2 [E,G,D]2 E,,2 [E,G,D]2 | A,,2 [E,A,C]2 E,,2 [E,A,C]2 | %32
 A,,2 [E,A,C]2 E,,2 [E,A,C]2 | !>![F,,F,]2 !>![G,,G,]2 !>![=A,,=A,]2 !>![F,,F,]2 | %34
 !>![B,,B,]2 !>![C,C]2 !>![D,D]2 !>![F,,F,]2 | B,,2 [F,A,=D]2 E,,2 [E,G,_D]2 |1 %36
 [A,,A,]2 [E,,E,]2 !>![C,,C,]2 !>![=B,,,=B,,]2 :|2 [A,,A,]2 [E,,E,]2 !>![A,,,A,,]2 z2 || %38
[K:Db][M:4/4] D,2 [F,A,D]2 [F,A,D]2 [F,A,D]2 | B,,2 [E,=G,D]2 E,,2 [E,G,D]2 | %40
 [A,,A,]2 [_G,A,C]2 [G,A,C]2 [G,A,C]2 | D,2 [F,A,D]2 [F,A,D]2 [F,A,D]2 | %42
 D,2 [F,A,D]2 A,,2 [F,A,D]2 | E,2 [G,A,C]2 [G,A,C]2 [G,A,C]2 | E,2 [G,A,C]2 A,,2 [G,A,C]2 | %45
 [D,A,D]2 z2 z4 | D,2 [F,A,D]2 [F,A,D]2 [F,A,D]2 | B,,2 [E,=G,D]2 E,,2 [E,G,D]2 | %48
 [A,,A,]2 [_G,A,C]2 [G,A,C]2 [G,A,C]2 | D,2 [F,A,D]2 [F,A,D]2 [F,A,D]2 | %50
 [G,,G,]2 [G,B,D]2 [G,B,D]2 [G,B,D]2 | D,2 [F,A,D]2 [A,DF]2 z2 | E,,2 [E,=G,D]2 A,,2 [_G,A,C]2 | %53
 [D,A,D]2 [A,,A,]2 [D,,D,]2 !^![D,,D,]!^![C,,C,] || %54
 !^![B,,,B,,]2 [C,,C,][D,,D,]- [D,,D,][D,,D,] [E,,E,]2 | %55
 [F,,F,]2 [E,,E,][D,,D,]- [D,,D,][C,,C,] [B,,,B,,]2 | %56
 [G,,G,]2 [F,,F,][G,,G,]- [G,,G,][A,,A,] [B,,B,]2 | [F,,F,]6 z2 | C,2 [F,=A,E]2 F,,2 [F,A,E]2 | %59
 B,,2 [F,B,D]2 F,,2 [F,B,D]2 | =G,,2 [=E,B,C]2 [E,B,C]2 [E,B,C]2 | %61
 [F,=A,C]2 !>![_E,,_E,]2 !>![D,,D,]2 !>![C,,C,]2 | %62
 [B,,,B,,]2 [C,,C,][D,,D,]- [D,,D,][D,,D,] [E,,E,]2 | %63
 [F,,F,]2 [E,,E,][D,,D,]- [D,,D,][C,,C,] [B,,,B,,]2 | %64
 [G,,G,]2 [F,,F,][G,,G,]- [G,,G,][A,,A,] [B,,B,]2 | [F,,F,]6 z2 |[K:treble] [=E=GB]2 [EGB]3 z z2 | %67
[K:bass] B,2 [DF]4 [DF]2 | F,2 [=A,EF]4 [A,EF]2 | [B,DF]4 !^![A,,E,A,]4 | %70
 [D,,D,]2 [F,A,D]2 [F,A,D]2 [F,A,D]2 | [B,,,B,,]2 [E,=G,D]2 [E,,E,]2 [E,G,D]2 | %72
 [A,,A,]2 [_G,A,C]2 [G,A,C]2 [G,A,C]2 | [D,,D,]2 [F,A,D]2 [F,A,D]2 [F,A,D]2 | %74
 [D,,D,]2 [F,A,D]2 [A,,,A,,]2 [F,A,D]2 | [E,,E,]2 [G,A,C]2 [G,A,C]2 [G,A,C]2 | %76
 [E,,E,]2 [G,A,C]2 [A,,,A,,]2 [G,A,C]2 | [D,A,D]2 z2 z4 | [D,,D,]2 [F,A,D]2 [F,A,D]2 [F,A,D]2 | %79
 [B,,,B,,]2 [E,=G,D]2 [E,,E,]2 [E,G,D]2 | [A,,A,]2 [_G,A,C]2 [G,A,C]2 [G,A,C]2 | %81
 D,2 [F,A,D]2 [F,A,D]2 [F,A,D]2 | [G,,G,]2 [G,B,D]2 [G,B,D]2 [G,B,D]2 | %83
 [D,,D,]2 [F,A,D]2 [A,DF]2 z2 | [E,,E,]2 [E,=G,D]2 [A,,,A,,]2 [_G,A,C]2 | %85
 [D,A,D]2 !>![A,,A,]2 !>![D,,D,]2 z2 |] %86
V:3
 x8 | x8 | [G_B]3 x5 | x8 |: x8 | x8 | x8 | x8 | x8 | x8 | x8 | x8 | x8 | x8 | x8 | x8 | x8 | x8 | %18
 x8 |1 x8 :|2 x8 |: x8 | x8 | x8 | x8 | x8 | x8 | x8 | x8 | x8 | x8 | x8 | x8 | x8 | x8 | x8 |1 %36
 x8 :|2 x8 ||[K:Db][M:4/4] x2 ba- afed | !>!=G6 [GB]2 | _G8 | d2 ed- d2 x2 | !>!F8 | !>!G8 | G8 | %45
 x8 | x2 ba- afed | !>!=G6 [GB]2 | !>!_G8 | d2 ed- d2 x2 | G8 | A4 !>!d4 | x8 | x8 || x8 | x8 | %56
 x8 | x8 | x8 | x8 | x8 | x8 | x8 | x8 | x8 | x8 | x8 | x8 | x8 | x8 |!8va(! x2 b'a'- a'f'e'd' | %71
 !>!=g6 [gb]2 | !>!_g8 | d'2 e'd'- d'2 x2 | !>!f8 | !>!g8 | !>!g8 | x8 | x2 b'a'- a'f'e'd' | %79
 !>!=g6 [gb]2 | !>!_g8 | d'2 e'd'- d'2 x2 | g8 | !>!a4 !>!d'4 | x8 | x8!8va)! |] %86
V:4
 x8 | x8 | [E,D]3 x5 | x8 |: x8 | x8 | x8 | x8 | x8 | x8 | x8 | x8 | x8 | x8 | x8 | x8 | x8 | x8 | %18
 x8 |1 x8 :|2 x8 |: x8 | x8 | x8 | x8 | x8 | x8 | x8 | x8 | x8 | x8 | x8 | x8 | x8 | x8 | x8 |1 %36
 x8 :|2 x8 ||[K:Db][M:4/4] x8 | x8 | x8 | x8 | x8 | x8 | x8 | x8 | x8 | x8 | x8 | x8 | x8 | x8 | %52
 x8 | x8 || x8 | x8 | x8 | z B,,2 C, D,2 B,,2 | x8 | x8 | x8 | x8 | x8 | x8 | x8 | %65
 z B,,2 C, D,2 F,2 |[K:treble] x8 |[K:bass] x8 | x8 | x8 | x8 | x8 | x8 | x8 | x8 | x8 | x8 | x8 | %78
 x8 | x8 | x8 | x8 | x8 | x8 | x8 | x8 |] %86

